frontend/public/svg/emojis/shocked-emoji.svg

<svg width="160" height="156" viewBox="0 0 160 156" fill="none" xmlns="http://www.w3.org/2000/svg">
<path d="M112.091 105.491C112.544 110.919 110.155 115.484 107.131 119.52C104.35 123.231 99.7692 123.722 95.6759 122.524C91.4015 121.234 87.3234 119.365 83.5549 116.971C78.3843 113.721 78.2292 113.457 73.223 117.137C71.0447 118.738 68.9144 120.434 66.5972 121.809C61.7366 124.694 56.6397 123.778 52.8721 119.556C47.4353 113.462 47.0886 110.9 50.8833 103.22C52.5762 99.8027 54.0408 96.1779 56.2815 93.1464C65.704 80.3936 83.4602 75.6718 97.3891 81.9056C107.603 86.4757 111.262 95.106 112.091 105.491ZM84.178 86.4222C70.5896 86.4777 58.5039 96.0953 55.1866 109.434C54.4796 112.278 55.7283 114.258 57.8166 115.839C59.8189 117.354 61.6547 116.422 63.3313 115.094C65.7981 113.138 68.139 111.007 70.7013 109.19C76.1185 105.35 80.4523 105.336 86.0049 108.891C88.1792 110.283 90.1937 112.079 92.5509 113.002C100.183 115.989 102.671 113.769 103.309 105.862C104.253 94.1416 96.007 86.37 84.178 86.4222Z" fill="black"/>
<path d="M58.9027 58.4568C58.1782 60.795 58.0901 62.5975 57.1631 63.664C56.1176 64.8639 54.2345 66.1505 52.8551 66.0117C51.4873 65.8763 49.2825 64.0702 49.2134 62.8926C48.9881 59.3786 49.301 55.8509 50.1411 52.4314C50.779 49.9381 53.4462 49.7486 54.961 51.5383C56.7412 53.6375 57.7651 56.3793 58.9027 58.4568Z" fill="black"/>
<path d="M113.537 57.4075C113.501 61.9701 111.709 64.4673 109.208 64.7957C106.618 65.1343 104.448 63.3373 103.82 59.9028C103.415 57.9236 103.371 55.8873 103.69 53.8924C103.917 52.7041 105.135 51.0686 106.182 50.8283C107.574 50.5093 109.861 50.8426 110.644 51.8048C112.191 53.7116 112.975 56.2428 113.537 57.4075Z" fill="black"/>
<path d="M107.493 34.1265C110.45 35.1137 113.223 35.7205 115.642 36.9956C116.694 37.5502 117.019 39.4794 117.674 40.7877C116.356 41.366 115.045 42.3905 113.72 42.4094C112.103 42.4331 110.496 41.3624 108.845 41.2162C106.543 41.013 104.203 41.3036 101.884 41.2291C100.778 41.105 99.6853 40.8849 98.6179 40.5709C98.9687 39.3764 98.9673 37.5183 99.7372 37.1093C102.138 35.8288 104.832 35.0982 107.493 34.1265Z" fill="black"/>
<path d="M58.5031 43.5125C53.7089 44.2756 49.7205 44.8403 45.7605 45.5656C43.1481 46.0443 41.4945 44.5289 42.1209 42.0173C42.8718 38.9918 47.754 36.8961 52.4074 37.6016C56.2624 38.186 58.4002 40.5133 58.2431 43.9668C58.239 44.0602 58.1455 44.151 58.5031 43.5125Z" fill="black"/>
<path d="M3.45301 56.8154C-3.55681 84.3665 2.58151 108.671 21.7102 129.067C22.2079 129.594 22.7158 130.12 23.223 130.624C33.4987 140.899 46.2975 147.244 56.4384 151.659C60.7911 153.559 83.1248 155.868 89.1676 154.968C125.079 149.605 148.711 129.351 156.942 95.4649C158.513 88.8271 159.296 82.0272 159.274 75.206C159.312 59.1373 152.547 40.4562 138.594 26.465C137.158 25.2779 135.726 24.0468 134.342 22.8551C131.34 20.2738 128.237 17.6026 124.991 15.3233C100.193 -2.12951 74.4275 -2.22769 48.4135 7.02823C24.861 15.4032 9.73491 32.1564 3.45301 56.8154ZM48.5145 15.2785C71.3391 5.793 94.2408 4.1191 116.578 18.3256C120.662 20.9259 131.55 29.7268 133.265 31.0479L133.374 31.1299L133.466 31.2301C142.18 40.4711 152.159 57.368 151.938 74.7375C151.866 82.1647 150.86 89.5533 148.946 96.7299C143.272 117.352 129.707 132.382 107.476 142.663C84.8752 153.484 52.4642 142.544 43.8408 136.851C34.3095 130.335 25.9697 122.228 19.1859 112.885C8.54652 97.8214 6.15887 76.1697 11.876 56.3753C14.5517 47.2361 19.2276 38.8068 25.5646 31.6986C31.9017 24.5905 39.7411 18.9815 48.5145 15.2785Z" fill="black"/>
</svg>

<svg xmlns="http://www.w3.org/2000/svg" width="160" height="156" fill="none" viewBox="0 0 160 156"><path fill="#000" d="M112.091 105.491c.453 5.428-1.936 9.993-4.96 14.029-2.781 3.711-7.362 4.202-11.455 3.004a49 49 0 0 1-12.121-5.553c-5.17-3.25-5.326-3.514-10.332.166-2.178 1.601-4.309 3.297-6.626 4.672-4.86 2.885-9.957 1.969-13.725-2.253-5.437-6.094-5.783-8.656-1.989-16.336 1.693-3.417 3.158-7.042 5.398-10.074 9.423-12.752 27.18-17.474 41.108-11.24 10.214 4.57 13.873 13.2 14.702 23.585M84.178 86.422c-13.588.056-25.674 9.673-28.991 23.012-.707 2.844.541 4.824 2.63 6.405 2.002 1.515 3.838.583 5.514-.745 2.467-1.956 4.808-4.087 7.37-5.904 5.418-3.84 9.751-3.854 15.304-.299 2.174 1.392 4.189 3.188 6.546 4.111 7.632 2.987 10.12.767 10.758-7.14.944-11.72-7.302-19.492-19.131-19.44M58.903 58.457c-.725 2.338-.813 4.14-1.74 5.207-1.045 1.2-2.928 2.486-4.308 2.348-1.368-.136-3.572-1.942-3.642-3.12a34.6 34.6 0 0 1 .928-10.46c.638-2.494 3.305-2.683 4.82-.894 1.78 2.1 2.804 4.841 3.942 6.919m54.634-1.049c-.036 4.562-1.828 7.06-4.329 7.388-2.59.338-4.76-1.459-5.388-4.893a16.8 16.8 0 0 1-.13-6.01c.227-1.189 1.445-2.824 2.492-3.065 1.392-.319 3.679.015 4.462.977 1.547 1.907 2.331 4.438 2.893 5.602m-6.044-23.28c2.957.987 5.73 1.593 8.149 2.869 1.052.554 1.377 2.483 2.032 3.792-1.318.578-2.629 1.603-3.954 1.621-1.617.024-3.224-1.047-4.875-1.193-2.302-.203-4.642.088-6.961.013a19 19 0 0 1-3.266-.658c.35-1.195.35-3.053 1.12-3.462 2.4-1.28 5.094-2.01 7.755-2.983m-48.99 9.387c-4.794.763-8.782 1.327-12.742 2.053-2.613.478-4.267-1.037-3.64-3.549.75-3.025 5.633-5.12 10.286-4.415 3.855.584 5.993 2.911 5.836 6.365-.004.093-.098.184.26-.454"/><path fill="#000" d="M3.453 56.815c-7.01 27.552-.871 51.856 18.257 72.252a69 69 0 0 0 1.513 1.557c10.276 10.275 23.075 16.62 33.215 21.035 4.353 1.9 26.687 4.209 32.73 3.309 35.911-5.363 59.543-25.617 67.774-59.503a86.8 86.8 0 0 0 2.332-20.259c.038-16.069-6.727-34.75-20.68-48.741a279 279 0 0 1-4.252-3.61c-3.002-2.581-6.105-5.252-9.351-7.532C100.193-2.13 74.427-2.227 48.414 7.028 24.86 15.403 9.734 32.156 3.453 56.815M48.515 15.28c22.824-9.486 45.726-11.16 68.063 3.047 4.084 2.6 14.972 11.4 16.687 12.722l.109.082.092.1c8.714 9.241 18.693 26.138 18.472 43.507a88.7 88.7 0 0 1-2.992 21.993c-5.674 20.622-19.239 35.652-41.47 45.933-22.6 10.821-55.012-.119-63.635-5.812a100.7 100.7 0 0 1-24.655-23.966c-10.64-15.064-13.027-36.715-7.31-56.51A64.18 64.18 0 0 1 48.515 15.28"/></svg>
